Papirus-Adapta/24x24/actions/office-chart-scatter.svg

<svg xmlns="http://www.w3.org/2000/svg" width="24" height="24" version="1.1">
 <defs>
  <style id="current-color-scheme" type="text/css">
   .ColorScheme-Text { color:#444444; } .ColorScheme-Highlight { color:#4285f4; } .ColorScheme-NeutralText { color:#ff9800; } .ColorScheme-PositiveText { color:#4caf50; } .ColorScheme-NegativeText { color:#f44336; }
  </style>
 </defs>
 <path style="fill:currentColor" class="ColorScheme-Text" transform="translate(4,4)" d="m 1,2 v 11 2 H 3 14 V 13 H 3 V 2 Z M 4,2 V 3 H 5 V 2 Z M 6,2 V 3 H 7 V 2 Z m 6,1 v 1 h 1 V 3 Z m 1,1 v 1 h 1 V 4 Z m 0,1 h -1 v 1 h 1 z M 12,5 V 4 H 11 V 5 Z M 4,4 V 5 H 5 V 4 Z M 6,4 V 5 H 7 V 4 Z m 3,3 v 1 h 1 V 7 Z m 2,0 v 1 h 1 V 7 Z M 5,9 v 1 H 6 V 9 Z m 1,1 v 1 h 1 v -1 z m 0,1 H 5 v 1 H 6 Z M 5,11 V 10 H 4 v 1 z M 9,9 v 1 h 1 V 9 Z m 2,0 v 1 h 1 V 9 Z"/>
</svg>

<svg xmlns="http://www.w3.org/2000/svg" width="24" height="24" viewBox="0 0 24 24">
 <defs>
  <style id="current-color-scheme" type="text/css">
   .ColorScheme-Text { color:#414c52; } .ColorScheme-Highlight { color:#00bcd4; }
  </style>
 </defs>
 <path style="fill:currentColor" class="ColorScheme-Text" d="M 2 2 L 2 13 L 2 14 L 3 14 L 14 14 L 14 13 L 3 13 L 3 2 L 2 2 z M 4 2 L 4 3 L 5 3 L 5 2 L 4 2 z M 6 2 L 6 3 L 7 3 L 7 2 L 6 2 z M 12 3 L 12 4 L 13 4 L 13 3 L 12 3 z M 13 4 L 13 5 L 14 5 L 14 4 L 13 4 z M 13 5 L 12 5 L 12 6 L 13 6 L 13 5 z M 12 5 L 12 4 L 11 4 L 11 5 L 12 5 z M 4 4 L 4 5 L 5 5 L 5 4 L 4 4 z M 6 4 L 6 5 L 7 5 L 7 4 L 6 4 z M 9 7 L 9 8 L 10 8 L 10 7 L 9 7 z M 11 7 L 11 8 L 12 8 L 12 7 L 11 7 z M 5 9 L 5 10 L 6 10 L 6 9 L 5 9 z M 6 10 L 6 11 L 7 11 L 7 10 L 6 10 z M 6 11 L 5 11 L 5 12 L 6 12 L 6 11 z M 5 11 L 5 10 L 4 10 L 4 11 L 5 11 z M 9 9 L 9 10 L 10 10 L 10 9 L 9 9 z M 11 9 L 11 10 L 12 10 L 12 9 L 11 9 z" transform="translate(4 4)"/>
</svg>
